X: 21651
M: 6/8
L: 1/8
K: D
|:\
d2A d2A | def ecA | B2d A2F | GEE E3 |\
d2A d2A | def ecA | B2d A2G | FDD D3 :|
|:\
|:\
fed ecA | fed ecA | Bcd A2F | GEE E3 |\
fed ecA | fed ecA | Bcd A2A | FDD D3 :|


